assets/images/table.svg

<svg xmlns="http://www.w3.org/2000/svg" width="20" height="20" viewBox="0 0 20 20"><path fill-rule="evenodd" d="M0 4C0 2.89543 0.895431 2 2 2H18C19.1046 2 20 2.89543 20 4V16C20 17.1046 19.1046 18 18 18H2C0.895431 18 0 17.1046 0 16V4ZM2 6V10H9V6H2ZM11 6V10H18V6H11ZM9 12H2V16H9V12ZM11 16V12H18V16H11Z" clip-rule="evenodd"/></svg>

<svg xmlns="http://www.w3.org/2000/svg" width="20" height="20" viewBox="0 0 20 20"><path fill-rule="evenodd" d="M0 4a2 2 0 0 1 2-2h16a2 2 0 0 1 2 2v12a2 2 0 0 1-2 2H2a2 2 0 0 1-2-2zm2 2v4h7V6zm9 0v4h7V6zm-2 6H2v4h7zm2 4v-4h7v4z" clip-rule="evenodd"/></svg>
